build/flags/Kyrgyzstan.svg

<svg xmlns="http://www.w3.org/2000/svg" fill="none" viewBox="0 0 28 28" focusable="false"><defs><filter id="Kyrgyzstan_svg__a"><feColorMatrix values="0 0 0 0 1 0 0 0 0 1 0 0 0 0 1 0 0 0 1 0"/></filter></defs><mask id="Kyrgyzstan_svg__b" width="28" height="20" x="0" y="4" maskUnits="userSpaceOnUse"><g filter="url(#Kyrgyzstan_svg__a)"><rect width="28" height="20" y="4" fill="#FFF" rx="3"/><rect width="28" height="20" y="4" stroke="#969696" stroke-opacity="0" stroke-width="0" rx="3"/></g></mask><path fill="none" d="M0 0H28V28H0z"/><rect width="28" height="20" y="4" fill="#FFF" rx="3"/><rect width="28" height="20" y="4" rx="3"/><g mask="url(#Kyrgyzstan_svg__b)"><path fill="#F22A46" d="M0 4H28V24H0z"/><path d="M0 4H28V24H0z"/><path fill="#FFF04D" fill-rule="evenodd" d="M14 17.3334C15.841 17.3334 17.3334 15.841 17.3334 14C17.3334 12.1591 15.841 10.6667 14 10.6667C12.1591 10.6667 10.6667 12.1591 10.6667 14C10.6667 15.841 12.1591 17.3334 14 17.3334Z"/><path d="M17.3334 14C17.3334 12.1591 15.841 10.6667 14 10.6667C12.1591 10.6667 10.6667 12.1591 10.6667 14C10.6667 15.841 12.1591 17.3334 14 17.3334C15.841 17.3334 17.3334 15.841 17.3334 14Z"/><path fill="#FFF04D" fill-rule="evenodd" d="M14 18.7136L12.3682 21.1495L11.9549 18.2468L9.42776 19.7334L10.3148 16.9389L7.39292 17.1818L9.40459 15.0489L6.66669 14L9.40459 12.9511L7.39292 10.8182L10.3148 11.0611L9.42776 8.26657L11.9549 9.75318L12.3682 6.85052L14 9.28638L15.6318 6.85052L16.0452 9.75318L18.5723 8.26657L17.6853 11.0611L20.6071 10.8182L18.5955 12.9511L21.3334 14L18.5955 15.0489L20.6071 17.1818L17.6853 16.9389L18.5723 19.7334L16.0452 18.2468L15.6318 21.1495L14 18.7136ZM18.6667 14C18.6667 16.5773 16.5774 18.6667 14 18.6667C11.4227 18.6667 9.33335 16.5773 9.33335 14C9.33335 11.4227 11.4227 9.33333 14 9.33333C16.5774 9.33333 18.6667 11.4227 18.6667 14Z"/><path d="M14 18.7136L12.3682 21.1495L11.9549 18.2468L9.42776 19.7334L10.3148 16.9389L7.39292 17.1818L9.40459 15.0489L6.66669 14L9.40459 12.9511L7.39292 10.8182L10.3148 11.0611L9.42776 8.26657L11.9549 9.75318L12.3682 6.85052L14 9.28638L15.6318 6.85052L16.0452 9.75318L18.5723 8.26657L17.6853 11.0611L20.6071 10.8182L18.5955 12.9511L21.3334 14L18.5955 15.0489L20.6071 17.1818L17.6853 16.9389L18.5723 19.7334L16.0452 18.2468L15.6318 21.1495L14 18.7136ZM18.6667 14C18.6667 16.5773 16.5774 18.6667 14 18.6667C11.4227 18.6667 9.33335 16.5773 9.33335 14C9.33335 11.4227 11.4227 9.33333 14 9.33333C16.5774 9.33333 18.6667 11.4227 18.6667 14Z"/></g></svg>

<svg xmlns="http://www.w3.org/2000/svg" fill="none" viewBox="0 0 28 28" focusable="false"><path fill="none" d="M0 0h28v28H0z"/><rect width="28" height="20" y="4" fill="#FFF" rx="3"/><rect width="28" height="20" y="4" rx="3"/><mask id="Kyrgyzstan_svg__a" width="28" height="20" x="0" y="4" mask-type="alpha" maskUnits="userSpaceOnUse"><rect width="28" height="20" y="4" fill="#FFF" rx="3"/><rect width="28" height="20" y="4" stroke="#979797" stroke-opacity="0" stroke-width="0" rx="3"/></mask><g mask="url(#Kyrgyzstan_svg__a)"><path fill="#F22A46" d="M0 4h28v20H0z"/><path d="M0 4h28v20H0z"/></g><g mask="url(#Kyrgyzstan_svg__a)"><path fill="#FFF04D" fill-rule="evenodd" d="M14 17.33c1.84 0 3.33-1.49 3.33-3.33 0-1.85-1.49-3.34-3.33-3.34-1.85 0-3.34 1.49-3.34 3.34 0 1.84 1.49 3.33 3.34 3.33"/><path d="M17.33 14c0-1.85-1.49-3.34-3.33-3.34-1.85 0-3.34 1.49-3.34 3.34 0 1.84 1.49 3.33 3.34 3.33 1.84 0 3.33-1.49 3.33-3.33"/></g><g mask="url(#Kyrgyzstan_svg__a)"><mask id="Kyrgyzstan_svg__b" fill="#fff"><path fill-rule="evenodd" d="m14 18.714-1.632 2.436-.413-2.903-2.527 1.486.887-2.794-2.922.243 2.012-2.133L6.667 14l2.738-1.049-2.012-2.133 2.922.243-.887-2.794 2.527 1.486.413-2.902L14 9.286l1.632-2.435.413 2.902 2.527-1.486-.887 2.794 2.922-.243-2.012 2.133L21.333 14l-2.738 1.049 2.012 2.133-2.922-.243.887 2.794-2.527-1.486-.413 2.903zM18.667 14a4.667 4.667 0 1 1-9.334 0 4.667 4.667 0 0 1 9.334 0" clip-rule="evenodd"/></mask><path fill="#FFF04D" fill-rule="evenodd" d="m14 18.714-1.632 2.436-.413-2.903-2.527 1.486.887-2.794-2.922.243 2.012-2.133L6.667 14l2.738-1.049-2.012-2.133 2.922.243-.887-2.794 2.527 1.486.413-2.902L14 9.286l1.632-2.435.413 2.902 2.527-1.486-.887 2.794 2.922-.243-2.012 2.133L21.333 14l-2.738 1.049 2.012 2.133-2.922-.243.887 2.794-2.527-1.486-.413 2.903zM18.667 14a4.667 4.667 0 1 1-9.334 0 4.667 4.667 0 0 1 9.334 0" clip-rule="evenodd" mask="url(#Kyrgyzstan_svg__b)"/></g></svg>
